img/test_drive.svg

<svg width="126" height="30" viewBox="0 0 126 30" fill="none" xmlns="http://www.w3.org/2000/svg">
<g filter="url(#filter0_d)">
<path d="M41.2476 6.9H33.3566V8.616H36.2556V16H38.3356V8.616H41.2476V6.9ZM44.663 14.31V12.204H48.888V10.566H44.663V8.59H49.447V6.9H42.57V16H49.616V14.31H44.663ZM55.5946 16.156C57.1806 16.156 58.4936 15.584 59.3516 14.531L57.9996 13.283C57.3886 13.998 56.6216 14.362 55.7116 14.362C54.0086 14.362 52.7996 13.166 52.7996 11.45C52.7996 9.734 54.0086 8.538 55.7116 8.538C56.6216 8.538 57.3886 8.902 57.9996 9.604L59.3516 8.356C58.4936 7.316 57.1806 6.744 55.6076 6.744C52.7736 6.744 50.6676 8.707 50.6676 11.45C50.6676 14.193 52.7736 16.156 55.5946 16.156ZM67.5904 6.9H59.6994V8.616H62.5984V16H64.6784V8.616H67.5904V6.9ZM80.7064 14.284V6.9H73.7124L73.6084 9.747C73.5174 12.295 73.2184 14.245 72.0354 14.284H71.6714L71.6584 17.885H73.6084V16H80.0304V17.885H81.9804V14.284H80.7064ZM75.4674 9.942L75.5064 8.616H78.6264V14.284H74.5574C75.1814 13.543 75.3894 11.879 75.4674 9.942ZM87.3371 6.9H83.3981V16H85.5041V13.491H87.3371C89.7681 13.491 91.2891 12.23 91.2891 10.202C91.2891 8.161 89.7681 6.9 87.3371 6.9ZM87.2201 11.775H85.5041V8.616H87.2201C88.5071 8.616 89.1571 9.201 89.1571 10.202C89.1571 11.19 88.5071 11.775 87.2201 11.775ZM99.1893 16H101.399L97.3303 6.9H95.2503L91.1943 16H93.3523L94.1583 14.05H98.3833L99.1893 16ZM94.8343 12.451L96.2773 8.967L97.7203 12.451H94.8343ZM106.805 6.315C108.508 6.315 109.314 5.6 109.327 4.326H107.884C107.871 4.95 107.494 5.275 106.805 5.275C106.09 5.275 105.739 4.95 105.726 4.326H104.283C104.296 5.6 105.076 6.315 106.805 6.315ZM102.606 16H104.595L108.937 10.085V16H111.017V6.9H109.041L104.699 12.828V6.9H102.606V16ZM119.588 11.255C120.394 10.865 120.875 10.176 120.875 9.253C120.875 7.745 119.627 6.9 117.521 6.9H113.283V16H117.768C120.069 16 121.304 15.025 121.304 13.439C121.304 12.334 120.693 11.58 119.588 11.255ZM115.376 8.46H117.339C118.249 8.46 118.73 8.85 118.73 9.565C118.73 10.293 118.249 10.67 117.339 10.67H115.376V8.46ZM117.69 14.44H115.376V12.139H117.69C118.665 12.139 119.172 12.503 119.172 13.27C119.172 14.063 118.665 14.44 117.69 14.44Z" fill="black"/>
<path d="M15 0C8.95819 0 4 4.95819 4 11C4 17.0418 8.95819 22 15 22C21.0418 22 26 17.0418 26 11C26 4.95819 21.0418 0 15 0ZM15 19.3789C10.38 19.3789 6.62109 15.62 6.62109 11C6.62109 6.38002 10.38 2.62109 15 2.62109C19.62 2.62109 23.3789 6.38002 23.3789 11C23.3789 15.62 19.62 19.3789 15 19.3789Z" fill="black"/>
<path d="M16.2891 9.06641C16.2891 9.77841 15.712 10.3555 15 10.3555C14.288 10.3555 13.7109 9.77841 13.7109 9.06641C13.7109 8.3544 14.288 7.77734 15 7.77734C15.712 7.77734 16.2891 8.3544 16.2891 9.06641Z" fill="black"/>
<path d="M15 11.6446C13.8581 11.6446 12.8987 10.8936 12.5609 9.86356C10.855 10.0495 9.26434 10.4067 7.91402 10.926C7.91368 10.9509 7.91016 10.975 7.91016 11C7.91016 11.7449 8.02715 12.4627 8.24098 13.1377C9.29573 12.5872 10.3285 12.2891 11.1328 12.2891C11.8057 12.2891 12.3225 12.4793 12.7121 12.8714C13.6127 13.7759 13.716 15.6118 13.718 17.9677C14.1344 18.0442 14.5618 18.0899 15 18.0899C15.4384 18.0899 15.8658 18.0442 16.2825 17.9677C16.284 15.6136 16.3867 13.7769 17.2879 12.8714C17.6775 12.4798 18.1936 12.2891 18.8672 12.2891C19.6609 12.2891 20.6959 12.5758 21.7605 13.1335C21.9737 12.4598 22.0898 11.7434 22.0898 11C22.0898 10.9755 22.0863 10.9519 22.0862 10.9275C20.6232 10.3634 19.0045 10.0348 17.4393 9.86322C17.1014 10.8936 16.142 11.6446 15 11.6446Z" fill="black"/>
</g>
<defs>
<filter id="filter0_d" x="0" y="0" width="125.304" height="30" filterUnits="userSpaceOnUse" color-interpolation-filters="sRGB">
<feFlood flood-opacity="0" result="BackgroundImageFix"/>
<feColorMatrix in="SourceAlpha" type="matrix" values="0 0 0 0 0 0 0 0 0 0 0 0 0 0 0 0 0 0 127 0"/>
<feOffset dy="4"/>
<feGaussianBlur stdDeviation="2"/>
<feColorMatrix type="matrix" values="0 0 0 0 0 0 0 0 0 0 0 0 0 0 0 0 0 0 0.25 0"/>
<feBlend mode="normal" in2="BackgroundImageFix" result="effect1_dropShadow"/>
<feBlend mode="normal" in="SourceGraphic" in2="effect1_dropShadow" result="shape"/>
</filter>
</defs>
</svg>

<svg width="126" height="30" fill="none" xmlns="http://www.w3.org/2000/svg"><g filter="url(#filter0_d)" fill="#000"><path d="M41.248 6.9h-7.891v1.716h2.899V16h2.08V8.616h2.912V6.9zm3.415 7.41v-2.106h4.225v-1.638h-4.225V8.59h4.784V6.9H42.57V16h7.046v-1.69h-4.953zm10.932 1.846c1.586 0 2.899-.572 3.757-1.625L58 13.283c-.611.715-1.378 1.079-2.288 1.079-1.703 0-2.912-1.196-2.912-2.912s1.209-2.912 2.912-2.912c.91 0 1.677.364 2.288 1.066l1.352-1.248c-.858-1.04-2.171-1.612-3.744-1.612-2.834 0-4.94 1.963-4.94 4.706 0 2.743 2.106 4.706 4.927 4.706zM67.59 6.9H59.7v1.716h2.898V16h2.08V8.616h2.912V6.9zm13.116 7.384V6.9h-6.994l-.104 2.847c-.09 2.548-.39 4.498-1.573 4.537h-.364l-.013 3.601h1.95V16h6.422v1.885h1.95v-3.601h-1.274zm-5.239-4.342l.04-1.326h3.12v5.668h-4.07c.624-.741.832-2.405.91-4.342zM87.337 6.9h-3.939V16h2.106v-2.509h1.833c2.431 0 3.952-1.261 3.952-3.289 0-2.041-1.52-3.302-3.952-3.302zm-.117 4.875h-1.716V8.616h1.716c1.287 0 1.937.585 1.937 1.586 0 .988-.65 1.573-1.937 1.573zM99.19 16h2.209L97.33 6.9h-2.08L91.194 16h2.158l.806-1.95h4.225L99.19 16zm-4.356-3.549l1.443-3.484 1.443 3.484h-2.886zm11.971-6.136c1.703 0 2.509-.715 2.522-1.989h-1.443c-.013.624-.39.949-1.079.949-.715 0-1.066-.325-1.079-.949h-1.443c.013 1.274.793 1.989 2.522 1.989zM102.606 16h1.989l4.342-5.915V16h2.08V6.9h-1.976l-4.342 5.928V6.9h-2.093V16zm16.982-4.745c.806-.39 1.287-1.079 1.287-2.002 0-1.508-1.248-2.353-3.354-2.353h-4.238V16h4.485c2.301 0 3.536-.975 3.536-2.561 0-1.105-.611-1.859-1.716-2.184zm-4.212-2.795h1.963c.91 0 1.391.39 1.391 1.105 0 .728-.481 1.105-1.391 1.105h-1.963V8.46zm2.314 5.98h-2.314v-2.301h2.314c.975 0 1.482.364 1.482 1.131 0 .793-.507 1.17-1.482 1.17zM15 0C8.958 0 4 4.958 4 11s4.958 11 11 11 11-4.958 11-11S21.042 0 15 0zm0 19.379c-4.62 0-8.379-3.759-8.379-8.379 0-4.62 3.759-8.379 8.379-8.379 4.62 0 8.379 3.759 8.379 8.379 0 4.62-3.759 8.379-8.379 8.379z"/><path d="M16.29 9.066a1.289 1.289 0 1 1-2.579 0 1.289 1.289 0 0 1 2.578 0z"/><path d="M15 11.645a2.573 2.573 0 0 1-2.44-1.781c-1.705.185-3.296.543-4.646 1.062 0 .025-.004.049-.004.074 0 .745.117 1.463.331 2.138 1.055-.55 2.088-.849 2.892-.849.673 0 1.19.19 1.58.582.9.905 1.003 2.74 1.005 5.097.416.076.844.122 1.282.122.438 0 .866-.046 1.282-.122.002-2.354.105-4.191 1.006-5.097.39-.391.906-.582 1.58-.582.793 0 1.828.287 2.893.845.213-.674.329-1.39.329-2.134 0-.024-.004-.048-.004-.072-1.463-.565-3.081-.893-4.647-1.065A2.573 2.573 0 0 1 15 11.645z"/></g><defs><filter id="filter0_d" x="0" y="0" width="125.304" height="30" filterUnits="userSpaceOnUse" color-interpolation-filters="sRGB"><feFlood flood-opacity="0" result="BackgroundImageFix"/><feColorMatrix in="SourceAlpha" values="0 0 0 0 0 0 0 0 0 0 0 0 0 0 0 0 0 0 127 0"/><feOffset dy="4"/><feGaussianBlur stdDeviation="2"/><feColorMatrix values="0 0 0 0 0 0 0 0 0 0 0 0 0 0 0 0 0 0 0.25 0"/><feBlend in2="BackgroundImageFix" result="effect1_dropShadow"/><feBlend in="SourceGraphic" in2="effect1_dropShadow" result="shape"/></filter></defs></svg>
